frontend/public/svg/finance/coin-2.svg

<svg width="149" height="153" viewBox="0 0 149 153" fill="none" xmlns="http://www.w3.org/2000/svg">
<g clip-path="url(#clip0)">
<path d="M58.5772 57.7152C55.833 57.1967 53.0763 56.7308 50.3446 56.1466C47.1443 55.4946 44.1214 54.1622 41.4808 52.24C39.1836 50.5493 37.5533 48.3807 37.5684 45.506C37.5947 40.4699 37.8723 35.4339 38.1289 30.4017C38.2261 28.4983 38.6251 26.6153 38.7668 24.7139C38.8955 22.5188 39.4791 20.3743 40.4806 18.4168C41.4821 16.4593 42.8797 14.7315 44.5846 13.3428C46.5484 11.6961 48.6251 10.0027 50.9387 8.98739C60.5081 4.78683 70.2273 1.11721 80.9801 1.36596C88.1657 1.53267 95.3625 1.35749 102.45 2.80603C107.931 3.9264 112.915 6.13686 117.06 9.98102C120.665 13.3231 122.808 17.3543 122.95 22.3897C123.055 26.0757 123.379 29.7552 123.601 33.3644C127.382 34.2445 131.018 34.874 134.504 35.9793C136.844 36.7299 139.048 37.8529 141.03 39.3049C144.029 41.5141 145.024 44.8871 145.171 48.5055C145.442 55.2323 145.63 61.9637 145.965 68.6876C146.407 77.5416 147.117 86.3851 147.421 95.243C147.767 105.339 147.896 115.446 147.894 125.547C147.894 128.536 147.073 131.52 146.73 134.515C146.402 137.385 144.522 138.762 142.088 139.717C136.561 141.919 130.797 143.471 124.913 144.345C110.767 146.319 96.4028 146.13 82.3138 143.783C79.2369 143.29 76.2394 142.299 72.9459 141.471C72.4641 141.865 71.7645 142.409 71.095 142.988C64.1231 149.009 55.9681 152.018 46.8339 152.616C36.3929 153.299 26.4815 151.454 17.2646 146.414C9.17388 141.989 3.64035 135.465 1.70941 126.309C-2.93287 104.301 11.1606 81.8485 32.9379 76.3116C34.6345 75.8804 36.175 74.8428 37.8703 74.4004C40.0015 73.8451 42.2639 73.1435 44.3858 73.3502C47.4706 73.6541 50.4898 74.6918 53.5253 75.4617C54.7921 75.7826 56.0286 76.2191 57.487 76.6667C57.8512 70.3048 58.2044 64.1867 58.5772 57.7152ZM43.5943 145.074C45.1826 144.889 47.7803 144.78 50.2934 144.262C61.9631 141.855 69.9838 135.446 72.707 123.395C73.7624 118.789 73.8766 114.017 73.0417 109.365C71.2171 99.0925 65.9701 91.3037 56.5798 86.5518C53.5876 85.0376 50.4589 83.7762 47.3308 82.5567C43.943 81.2598 40.2177 81.1403 36.7539 82.2174C24.2691 85.8148 15.3573 93.3095 11.3294 105.92C10.2577 109.11 9.55048 112.411 9.22114 115.759C8.24713 127.791 12.6013 135.624 23.0634 140.593C29.2448 143.529 35.7891 144.856 43.5943 145.073V145.074ZM74.9202 33.3035C82.8382 32.5204 90.3526 32.0445 97.7725 30.9366C101.863 30.2964 105.847 29.0927 109.608 27.3596C114.105 25.3053 114.588 21.5379 111.408 17.7383C110.811 16.9209 110.068 16.2212 109.216 15.6748C106.565 14.2565 103.952 12.5244 101.098 11.7775C90.7576 9.05446 79.9831 8.39117 69.3879 9.82546C63.5634 10.6078 57.9674 12.2002 52.9215 15.346C50.1301 17.0873 47.5809 19.1219 46.1757 22.2093C44.8879 25.0381 45.5193 27.3484 48.2812 28.7609C50.3524 29.8782 52.5933 30.6472 54.9141 31.0371C61.6797 31.9789 68.49 32.5997 74.9202 33.3027V33.3035ZM115.538 34.5609C111.378 35.7889 107.686 37.1174 103.885 37.9542C93.9677 40.1372 83.8798 40.4758 73.7683 40.1969C63.7779 39.9212 53.8259 39.3523 44.561 34.815V46.526C47.3452 48.457 49.4586 49.423 53.6644 49.9055C60.2317 50.6589 66.8183 51.3612 73.4165 51.711C85.0842 52.3462 96.7782 51.0659 108.032 47.9208C110.799 47.1482 113.561 46.23 115.54 44.7415L115.538 34.5609ZM139.007 79.2159C133.685 81.5998 129.117 84.0282 124.292 85.732C112.514 89.8913 100.28 89.9129 88.0233 88.8424C83.1368 88.4152 78.2885 87.5508 73.5182 86.8984C74.9287 89.1627 76.5452 91.4474 77.8284 93.9061C79.1115 96.3647 80.0711 99.013 81.2807 101.831C82.5626 102.024 83.9816 102.349 85.4157 102.435C98.6553 103.252 111.939 101.89 124.738 98.4053C128.923 97.2685 132.905 95.3697 136.953 93.7512C137.975 93.3416 139.017 92.8015 139.012 91.3884C138.997 87.3795 139.007 83.3712 139.007 79.2153V79.2159ZM66.3156 77.879C68.7532 78.6489 71.2611 79.6852 73.8713 80.2234C85.8876 82.6906 98.2372 83.0864 110.387 81.3943C119.459 80.1597 127.611 76.4915 135.006 71.1489C135.947 70.4689 137.172 69.508 137.316 68.5314C137.657 66.239 137.425 63.8618 137.425 61.4701C137.126 61.5175 136.836 61.6135 136.568 61.7543C130.469 66.3001 123.458 68.4704 116.078 69.7561C105.207 71.5683 94.1463 71.9575 83.1756 70.9146C77.6958 70.4394 72.2508 69.5802 67.1097 67.4314C66.4534 67.1583 65.7791 66.9404 64.7913 66.5788C65.3144 70.4354 65.7738 73.8497 66.3156 77.8783V77.879ZM77.2941 136.003C88.022 139.778 126.426 139.865 140.463 130.555C140.156 127.489 139.84 124.342 139.516 121.115C120.45 128.32 101.014 129.126 81.2755 127.041C79.9116 130.108 78.6029 133.055 77.2941 136.002V136.003ZM139.021 102.337C121.035 108.857 101.747 110.962 82.7785 108.475V119.56C83.0863 119.77 83.1756 119.883 83.2721 119.889C85.1761 120.008 87.0795 120.12 88.9822 120.223C101.669 120.914 114.388 119.72 126.726 116.679C131.037 115.665 135.178 114.029 139.019 111.822L139.021 102.337ZM124.039 41.8581C123.828 42.1817 123.579 42.3924 123.607 42.5486C124.363 46.4997 122.042 48.8081 119.262 50.9536C115.603 53.7759 111.315 55.08 106.938 56.0828C94.2086 58.9141 81.1121 59.7211 68.131 58.4739C67.1951 58.3919 66.2453 58.4635 65.3027 58.4635C65.964 59.5102 66.9443 60.3166 68.0988 60.7639C70.2923 61.6105 72.556 62.2648 74.8631 62.7191C88.5215 64.9283 102.465 64.6626 116.03 61.9348C121.107 60.9457 126.097 59.3915 130.179 56.0383C131.968 54.5365 133.487 52.7382 134.667 50.7219C135.897 48.6393 135.253 46.828 133.269 45.4936C130.494 43.6224 127.344 42.3815 124.039 41.8581Z" fill="black"/>
<path d="M42.2467 99.8165V112.156C44.045 112.834 45.7253 113.393 47.3497 114.092C53.7306 116.839 55.3006 122.833 51.1171 128.347C49.3942 130.618 48.0323 131.537 42.9509 133.871C42.4718 136.308 41.9887 138.71 41.5299 141.117C41.2746 142.457 40.6346 143.495 39.171 143.529C37.6266 143.565 37.0839 142.306 36.8083 141.096C36.2917 138.821 35.9399 136.506 35.4713 133.941C33.6027 133.443 31.5687 132.915 29.5439 132.352C28.5634 132.121 27.6036 131.81 26.6744 131.422C24.8229 130.559 24.0779 129.114 24.4323 127.373C24.7605 125.759 26.148 124.738 28.2844 124.879C30.6118 125.031 32.924 125.426 35.1838 125.708C36.1276 123.106 36.2339 121.557 35.8243 117.126C34.2491 116.535 32.546 116.014 30.9432 115.275C24.4586 112.284 23.0298 105.807 27.6248 100.33C29.5216 97.9446 32.0208 96.1088 34.8642 95.0127C36.5982 94.384 37.2926 93.3279 37.3583 91.5296C37.374 90.3002 37.6421 89.0873 38.1459 87.9663C38.3622 87.6046 38.6623 87.3008 39.021 87.0802C39.3796 86.8597 39.7861 86.7284 40.2061 86.6982C40.6126 86.8138 40.9859 87.0244 41.2948 87.3126C41.6037 87.6014 41.8393 87.9597 41.9822 88.3575C42.2635 89.7916 42.4172 91.248 42.4416 92.7096C43.987 93.0614 45.5133 93.492 47.0143 94.0007C49.4093 94.9432 50.5428 96.8013 50.2507 98.9186C49.9921 100.793 48.9728 101.426 47.2243 100.657C45.6937 99.9845 44.2682 98.9882 42.2467 99.8165ZM36.3344 102.263C33.0527 104.21 31.3725 106.281 31.9789 107.824C32.7009 109.667 34.3844 110.132 36.3344 110.385V102.263ZM42.4672 125.387C44.6482 124.582 46.6468 123.619 46.5811 121.409C46.526 119.556 44.4841 119.178 42.8242 118.926C42.7291 118.911 42.6187 118.996 42.1993 119.153C42.1993 120.443 42.1764 121.856 42.2098 123.267C42.2249 123.884 42.355 124.499 42.4672 125.387Z" fill="black"/>
</g>
<defs>
<clipPath id="clip0">
<rect width="147.676" height="152.27" fill="white" transform="translate(0.534424 0.703125)"/>
</clipPath>
</defs>
</svg>

<svg xmlns="http://www.w3.org/2000/svg" width="149" height="153" fill="none" viewBox="0 0 149 153"><g fill="#000" clip-path="url(#a)"><path d="M58.577 57.715c-2.744-.518-5.5-.984-8.232-1.568a22.8 22.8 0 0 1-8.864-3.907c-2.297-1.69-3.928-3.86-3.913-6.734.027-5.036.304-10.072.56-15.104.098-1.904.497-3.787.639-5.688a15.86 15.86 0 0 1 5.818-11.371c1.963-1.647 4.04-3.34 6.354-4.356 9.57-4.2 19.288-7.87 30.041-7.621 7.186.167 14.382-.009 21.47 1.44 5.481 1.12 10.465 3.33 14.61 7.175 3.605 3.342 5.748 7.373 5.89 12.409.105 3.686.429 7.365.651 10.974 3.781.88 7.417 1.51 10.903 2.615 2.34.75 4.544 1.874 6.526 3.326 2.999 2.21 3.994 5.582 4.141 9.2.271 6.727.459 13.459.794 20.183.442 8.854 1.152 17.697 1.456 26.555.346 10.096.475 20.203.473 30.304 0 2.989-.821 5.973-1.164 8.968-.328 2.87-2.208 4.247-4.642 5.202a77 77 0 0 1-17.175 4.628 140.8 140.8 0 0 1-42.6-.562c-3.076-.493-6.074-1.484-9.367-2.312-.482.394-1.181.938-1.851 1.517-6.972 6.021-15.127 9.03-24.261 9.628-10.441.683-20.353-1.162-29.57-6.202-8.09-4.425-13.624-10.949-15.555-20.105-4.642-22.008 9.452-44.46 31.229-49.997 1.697-.432 3.237-1.47 4.932-1.912 2.132-.555 4.394-1.257 6.516-1.05 3.085.304 6.104 1.342 9.14 2.112 1.266.32 2.503.757 3.961 1.205.364-6.362.717-12.48 1.09-18.952m-14.983 87.359c1.589-.185 4.186-.294 6.7-.812 11.67-2.407 19.69-8.816 22.413-20.867a35.1 35.1 0 0 0 .335-14.03C71.217 99.093 65.97 91.304 56.58 86.552c-2.992-1.514-6.121-2.776-9.25-3.995a16.16 16.16 0 0 0-10.576-.34C24.269 85.815 15.357 93.31 11.329 105.92a44.6 44.6 0 0 0-2.108 9.839c-.974 12.032 3.38 19.865 13.842 24.834 6.182 2.936 12.726 4.263 20.531 4.48zM74.92 33.304c7.918-.784 15.433-1.26 22.852-2.367a45 45 0 0 0 11.836-3.577c4.497-2.055 4.98-5.822 1.8-9.622a8.2 8.2 0 0 0-2.192-2.063c-2.651-1.418-5.264-3.15-8.118-3.898a81.6 81.6 0 0 0-31.71-1.952c-5.825.783-11.42 2.375-16.467 5.521-2.79 1.741-5.34 3.776-6.745 6.863-1.288 2.83-.657 5.14 2.105 6.552a21.5 21.5 0 0 0 6.633 2.276c6.766.942 13.576 1.563 20.006 2.266m40.618 1.257c-4.16 1.228-7.852 2.556-11.653 3.393-9.917 2.183-20.005 2.522-30.117 2.243-9.99-.276-19.942-.845-29.207-5.382v11.711c2.784 1.931 4.898 2.897 9.103 3.38 6.568.753 13.154 1.455 19.752 1.805a107 107 0 0 0 34.616-3.79c2.767-.773 5.529-1.691 7.508-3.18zm23.469 44.655c-5.322 2.384-9.89 4.812-14.715 6.516-11.778 4.16-24.012 4.18-36.269 3.11-4.886-.427-9.734-1.291-14.505-1.944 1.41 2.265 3.027 4.55 4.31 7.008 1.284 2.459 2.243 5.107 3.453 7.925 1.282.193 2.7.518 4.135.604 13.24.817 26.523-.545 39.322-4.03 4.185-1.136 8.167-3.035 12.215-4.654 1.022-.41 2.064-.95 2.059-2.363-.015-4.009-.005-8.017-.005-12.173m-72.691-1.337c2.437.77 4.945 1.806 7.555 2.344a107.7 107.7 0 0 0 36.516 1.171c9.072-1.234 17.224-4.903 24.619-10.245.941-.68 2.166-1.641 2.31-2.618.341-2.292.109-4.67.109-7.06a2.8 2.8 0 0 0-.857.283c-6.099 4.546-13.11 6.716-20.49 8.002a127 127 0 0 1-32.902 1.159c-5.48-.476-10.925-1.335-16.066-3.484-.657-.273-1.33-.49-2.319-.852.523 3.856.983 7.27 1.525 11.3m10.978 58.124c10.728 3.775 49.132 3.862 63.169-5.448l-.947-9.44c-19.066 7.205-38.502 8.011-58.24 5.926-1.364 3.067-2.673 6.014-3.982 8.961zm61.727-33.666a119.46 119.46 0 0 1-56.242 6.138v11.085c.307.21.397.323.493.329q2.856.179 5.71.334a128.5 128.5 0 0 0 37.744-3.544 45.7 45.7 0 0 0 12.293-4.857zm-14.982-60.479c-.211.324-.46.534-.432.69.756 3.952-1.565 6.26-4.345 8.406-3.659 2.822-7.947 4.126-12.324 5.129a124.1 124.1 0 0 1-38.807 2.39c-.936-.081-1.886-.01-2.828-.01a5.78 5.78 0 0 0 2.796 2.3 40.5 40.5 0 0 0 6.764 1.956 115.4 115.4 0 0 0 41.167-.784c5.077-.99 10.067-2.544 14.149-5.897a20.4 20.4 0 0 0 4.488-5.316c1.23-2.083.586-3.894-1.398-5.228a22.9 22.9 0 0 0-9.23-3.636"/><path d="M42.247 99.817v12.339c1.798.678 3.478 1.237 5.103 1.936 6.38 2.747 7.95 8.741 3.767 14.255-1.723 2.271-3.085 3.19-8.166 5.524-.48 2.437-.962 4.839-1.421 7.246-.255 1.34-.895 2.378-2.359 2.412-1.544.036-2.087-1.223-2.363-2.433-.516-2.275-.868-4.59-1.337-7.155-1.868-.498-3.902-1.026-5.927-1.589-.98-.231-1.94-.542-2.87-.93-1.851-.863-2.596-2.308-2.242-4.049.329-1.614 1.716-2.635 3.852-2.494 2.328.152 4.64.547 6.9.829.944-2.602 1.05-4.151.64-8.582-1.575-.591-3.278-1.112-4.88-1.851-6.485-2.991-7.914-9.468-3.32-14.945a17.1 17.1 0 0 1 7.24-5.317c1.734-.629 2.429-1.685 2.494-3.483a9 9 0 0 1 .788-3.564 2.62 2.62 0 0 1 2.06-1.268 2.66 2.66 0 0 1 1.776 1.66c.282 1.434.435 2.89.46 4.352q2.319.527 4.572 1.29c2.395.943 3.529 2.801 3.237 4.919-.259 1.874-1.278 2.507-3.027 1.738-1.53-.672-2.956-1.669-4.977-.84m-5.913 2.446c-3.281 1.947-4.962 4.018-4.355 5.561.722 1.843 2.405 2.308 4.355 2.561zm6.133 23.124c2.181-.805 4.18-1.768 4.114-3.978-.055-1.853-2.097-2.231-3.757-2.483-.095-.015-.205.07-.625.227 0 1.29-.023 2.703.01 4.114.016.617.146 1.232.258 2.12"/></g><defs><clipPath id="a"><path fill="#fff" d="M.534.703H148.21v152.27H.534z"/></clipPath></defs></svg>
